assets/sign_in-5c74b4a3.svg

<svg width="32" height="31" viewBox="0 0 32 31" fill="none" xmlns="http://www.w3.org/2000/svg">
<path d="M21 19.5C23.2091 19.5 25 17.7091 25 15.5C25 13.2909 23.2091 11.5 21 11.5" stroke="#212225"/>
<path d="M20.3536 15.8536C20.5488 15.6583 20.5488 15.3417 20.3536 15.1464L17.1716 11.9645C16.9763 11.7692 16.6597 11.7692 16.4645 11.9645C16.2692 12.1597 16.2692 12.4763 16.4645 12.6716L19.2929 15.5L16.4645 18.3284C16.2692 18.5237 16.2692 18.8403 16.4645 19.0355C16.6597 19.2308 16.9763 19.2308 17.1716 19.0355L20.3536 15.8536ZM6 16L20 16V15L6 15V16Z" fill="#212225"/>
</svg>

<svg xmlns="http://www.w3.org/2000/svg" width="32" height="31" fill="none" viewBox="0 0 32 31"><path stroke="#212225" d="M21 19.5a4 4 0 0 0 0-8"/><path fill="#212225" d="M20.354 15.854a.5.5 0 0 0 0-.708l-3.182-3.182a.5.5 0 1 0-.707.708l2.828 2.828-2.828 2.828a.5.5 0 1 0 .707.707l3.182-3.181ZM6 16h14v-1H6v1Z"/></svg>
